X:65
T:Ellaressonburgh
O:No 65 Wm Clarke MS  Feltwell, Norfolk
N:dots added where q followed by semi-q
N:bar 8 cr changed to qs
N:bar 16
I:abc2nwc
M:2/4
L:1/16
K:C
"^*"e3f e2c2|B2A2 B2G2|c2e2 d2c2|B2d2 g4|
"^*"e3f e2c2|B2A2 B2G2|c2e2 d2g2|e2"^*"c2 c2 z2|]
c2c'2 b2a2|g2e2 c2e2|f2a2 g2e2|d2B2 G4|
c2c'2 b2a2|g2e2 c2e2|f2a2 g2e2|c4c2|]

